src/assets/Icons/Icon-Moneybag.svg

<svg width="44" height="44" viewBox="0 0 44 44" fill="none" xmlns="http://www.w3.org/2000/svg">
<path fill-rule="evenodd" clip-rule="evenodd" d="M26.8676 22.6805C26.5863 21.8849 26.0652 21.1961 25.3762 20.709C24.6872 20.2218 23.8641 19.9602 23.0202 19.9602V18.9402H20.9803V19.9602C19.8982 19.9602 18.8604 20.39 18.0953 21.1552C17.3302 21.9203 16.9003 22.9581 16.9003 24.0401C16.9003 25.1222 17.3302 26.1599 18.0953 26.9251C18.8604 27.6902 19.8982 28.1201 20.9803 28.1201V32.2C20.0929 32.2 19.3371 31.6339 19.0555 30.8404C19.0138 30.7106 18.9464 30.5904 18.8574 30.4871C18.7684 30.3838 18.6595 30.2993 18.5373 30.2388C18.4151 30.1782 18.282 30.1428 18.1459 30.1346C18.0098 30.1264 17.8734 30.1456 17.7448 30.191C17.6162 30.2365 17.498 30.3072 17.3972 30.3991C17.2965 30.491 17.2151 30.6022 17.1581 30.7261C17.101 30.85 17.0694 30.984 17.0651 31.1203C17.0607 31.2566 17.0838 31.3924 17.1329 31.5197C17.4142 32.3153 17.9353 33.004 18.6243 33.4912C19.3133 33.9784 20.1364 34.24 20.9803 34.24V35.26H23.0202V34.24C24.1023 34.24 25.14 33.8102 25.9052 33.045C26.6703 32.2799 27.1002 31.2421 27.1002 30.1601C27.1002 29.078 26.6703 28.0402 25.9052 27.2751C25.14 26.51 24.1023 26.0801 23.0202 26.0801V22.0001C23.4421 22 23.8536 22.1307 24.1982 22.3742C24.5427 22.6177 24.8032 22.9621 24.9439 23.3598C25.034 23.6149 25.2217 23.8238 25.4658 23.9404C25.5867 23.9982 25.7177 24.0316 25.8515 24.0388C25.9853 24.0459 26.1191 24.0266 26.2454 23.982C26.3717 23.9374 26.488 23.8683 26.5877 23.7788C26.6873 23.6892 26.7683 23.581 26.8261 23.4601C26.8839 23.3392 26.9173 23.2082 26.9244 23.0744C26.9315 22.9407 26.9122 22.8068 26.8676 22.6805ZM20.9803 22.0001C20.4392 22.0001 19.9203 22.2151 19.5378 22.5976C19.1552 22.9802 18.9403 23.4991 18.9403 24.0401C18.9403 24.5812 19.1552 25.1 19.5378 25.4826C19.9203 25.8652 20.4392 26.0801 20.9803 26.0801V22.0001ZM23.0202 32.2C23.5613 32.2 24.0801 31.9851 24.4627 31.6025C24.8453 31.22 25.0602 30.7011 25.0602 30.1601C25.0602 29.619 24.8453 29.1001 24.4627 28.7176C24.0801 28.335 23.5613 28.1201 23.0202 28.1201V32.2Z" fill="black"/>
<path fill-rule="evenodd" clip-rule="evenodd" d="M10.9364 6.31377C13.4395 5.08876 17.5459 3.64038 22.04 3.64038C26.4402 3.64038 30.4386 5.02858 32.9284 6.23727L33.0691 6.30561C33.8198 6.67689 34.4257 7.02776 34.8521 7.31234L31.0842 12.8203C39.7704 21.7003 46.4799 40.3569 22.04 40.3569C-2.39994 40.3569 4.129 22.0389 12.8907 12.8203L9.14734 7.31234C9.436 7.12364 9.80217 6.90434 10.2387 6.67179C10.455 6.55551 10.6875 6.43617 10.9364 6.31479V6.31377ZM28.6628 12.7468L31.6789 8.33743C28.8739 8.53938 25.5365 9.1983 22.3235 10.1285C20.0286 10.7915 17.4786 10.6905 15.1173 10.255C14.5223 10.1447 13.9314 10.0134 13.3456 9.86129L15.304 12.7448C19.5012 14.2391 24.4645 14.2391 28.6628 12.7468ZM14.1259 14.4829C19.0371 16.38 24.9398 16.38 29.8511 14.4808C31.9011 16.6419 33.616 19.0977 34.9388 21.7666C36.3178 24.5797 37.0685 27.3918 36.9461 29.8153C36.8278 32.1541 35.9077 34.1523 33.8066 35.6374C31.6167 37.1847 27.9335 38.3169 22.039 38.3169C16.1383 38.3169 12.4378 37.2041 10.2275 35.6741C8.11103 34.2074 7.18182 32.2368 7.05025 29.9296C6.91255 27.5326 7.64694 24.7348 9.02086 21.9022C10.3315 19.2013 12.1604 16.6014 14.1259 14.4829ZM12.9529 7.63465C13.7689 7.87741 14.6216 8.08855 15.4866 8.24869C17.6795 8.6526 19.8786 8.71176 21.7554 8.16811C23.9425 7.53097 26.1669 7.02987 28.4159 6.66771C26.5392 6.10263 24.3441 5.68036 22.039 5.68036C18.5251 5.68036 15.2479 6.66057 12.9529 7.63465Z" fill="black"/>
</svg>

<svg xmlns="http://www.w3.org/2000/svg" width="44" height="44" fill="#000" fill-rule="evenodd" xmlns:v="https://vecta.io/nano"><path d="M26.868 22.681a4.08 4.08 0 0 0-3.847-2.72v-1.02h-2.04v1.02a4.08 4.08 0 1 0 0 8.16v4.08c-.887 0-1.643-.566-1.925-1.36a1.02 1.02 0 0 0-1.31-.65 1.02 1.02 0 0 0-.612 1.329 4.08 4.08 0 0 0 3.847 2.72v1.02h2.04v-1.02a4.08 4.08 0 1 0 0-8.16V22a2.04 2.04 0 0 1 1.924 1.36 1.02 1.02 0 0 0 1.644.419 1.02 1.02 0 0 0 .28-1.098zM20.98 22a2.04 2.04 0 0 0 0 4.08V22zm2.04 10.2a2.04 2.04 0 1 0 0-4.08v4.08zM10.936 6.314C13.44 5.089 17.546 3.64 22.04 3.64c4.4 0 8.399 1.388 10.888 2.597l.141.068c.751.371 1.357.722 1.783 1.007l-3.768 5.508C39.77 21.7 46.48 40.357 22.04 40.357S4.129 22.039 12.891 12.82L9.147 7.312a14.31 14.31 0 0 1 1.091-.641 19.36 19.36 0 0 1 .698-.357v-.001zm17.726 6.433l3.016-4.409c-2.805.202-6.142.861-9.355 1.791-2.295.663-4.845.562-7.206.127a25.58 25.58 0 0 1-1.772-.394l1.958 2.884c4.197 1.494 9.161 1.494 13.359.002zm-14.537 1.736c4.911 1.897 10.814 1.897 15.725-.002a29.85 29.85 0 0 1 5.088 7.286c1.379 2.813 2.13 5.625 2.007 8.049-.118 2.339-1.038 4.337-3.139 5.822-2.19 1.547-5.873 2.679-11.768 2.679-5.901 0-9.601-1.113-11.812-2.643-2.116-1.467-3.046-3.437-3.177-5.745-.138-2.397.597-5.195 1.971-8.027 1.311-2.701 3.14-5.301 5.105-7.419zm-1.173-6.848a24.59 24.59 0 0 0 2.534.614c2.193.404 4.392.463 6.269-.081a55.18 55.18 0 0 1 6.66-1.5c-1.877-.565-4.072-.987-6.377-.987-3.514 0-6.791.98-9.086 1.954z"/></svg>
